packages/frontend/src/assets/icons/icons8_messaging.svg

<svg xmlns="http://www.w3.org/2000/svg" xmlns:xlink="http://www.w3.org/1999/xlink" viewBox="0 0 30 30" fill="currentColor">
  <path d="M13 3C6.925 3 2 7.477 2 13C2 15.837518 3.306518 18.39284 5.3945312 20.212891C5.093984 21.190901 4.4689762 22.164269 3.3242188 23.03125C3.3234549 23.031829 3.3230299 23.032625 3.3222656 23.033203 A 0.5 0.5 0 0 0 3.5 24 A 0.5 0.5 0 0 0 3.6054688 23.988281C5.5400885 23.981524 7.1912591 23.156263 8.5058594 22.121094C9.8792065 22.68134 11.397234 23 13 23C19.075 23 24 18.523 24 13C24 7.477 19.075 3 13 3 z M 9 10L17 10C17.552 10 18 10.448 18 11C18 11.552 17.552 12 17 12L9 12C8.448 12 8 11.552 8 11C8 10.448 8.448 10 9 10 z M 9 14L15 14C15.552 14 16 14.448 16 15C16 15.552 15.552 16 15 16L9 16C8.448 16 8 15.552 8 15C8 14.448 8.448 14 9 14 z M 25.777344 15.166016C24.746344 20.357016 20.094078 24.3935 14.330078 24.9375C15.778078 26.2105 17.784 27 20 27C21.056083 27 22.061339 26.815582 22.984375 26.490234C24.211688 27.347591 25.69711 27.983324 27.398438 27.988281 A 0.5 0.5 0 0 0 27.5 28 A 0.5 0.5 0 0 0 27.673828 27.03125C26.75793 26.336176 26.170272 25.57197 25.818359 24.792969C27.167112 23.539939 28 21.857118 28 20C28 18.123 27.151344 16.423016 25.777344 15.166016 z" />
</svg>

<svg xmlns="http://www.w3.org/2000/svg" width="25.965" height="24.966" viewBox="0 0 25.965 24.966"><defs><style></style></defs><path class="" d="M12.985,3C6.918,3,2,7.471,2,12.986a9.543,9.543,0,0,0,3.39,7.2A5.556,5.556,0,0,1,3.322,23l0,0a.5.5,0,0,0,.283.954A7.961,7.961,0,0,0,8.5,22.1a11.862,11.862,0,0,0,4.488.878c6.067,0,10.985-4.471,10.985-9.986S19.052,3,12.985,3ZM8.991,9.991H16.98a1,1,0,1,1,0,2H8.991a1,1,0,0,1,0-2Zm0,3.995h5.992a1,1,0,1,1,0,2H8.991a1,1,0,1,1,0-2ZM25.745,15.15a12.642,12.642,0,0,1-11.432,9.758,8.569,8.569,0,0,0,5.662,2.06,8.953,8.953,0,0,0,2.98-.509,7.712,7.712,0,0,0,4.408,1.5A.5.5,0,0,0,27.639,27a5.827,5.827,0,0,1-1.853-2.235,6.353,6.353,0,0,0-.041-9.614Z" transform="translate(-2 -3)"/></svg>
